COLOR/action 16/16/package-broken.svg

<?xml version="1.0" encoding="UTF-8" standalone="no"?>
<svg
   xmlns:dc="http://purl.org/dc/elements/1.1/"
   xmlns:cc="http://creativecommons.org/ns#"
   xmlns:rdf="http://www.w3.org/1999/02/22-rdf-syntax-ns#"
   xmlns:svg="http://www.w3.org/2000/svg"
   xmlns="http://www.w3.org/2000/svg"
   xmlns:sodipodi="http://sodipodi.sourceforge.net/DTD/sodipodi-0.dtd"
   xmlns:inkscape="http://www.inkscape.org/namespaces/inkscape"
   height="16"
   width="16"
   version="1.1"
   id="svg4"
   sodipodi:docname="package-broken.svg"
   inkscape:version="0.92.4 (5da689c313, 2019-01-14)">
  <metadata
     id="metadata10">
    <rdf:RDF>
      <cc:Work
         rdf:about="">
        <dc:format>image/svg+xml</dc:format>
        <dc:type
           rdf:resource="http://purl.org/dc/dcmitype/StillImage" />
      </cc:Work>
    </rdf:RDF>
  </metadata>
  <defs
     id="defs8" />
  <sodipodi:namedview
     pagecolor="#ffffff"
     bordercolor="#808080"
     borderopacity="1"
     objecttolerance="10"
     gridtolerance="10"
     guidetolerance="10"
     inkscape:pageopacity="0"
     inkscape:pageshadow="2"
     inkscape:window-width="1920"
     inkscape:window-height="1016"
     id="namedview6"
     showgrid="false"
     inkscape:zoom="14.75"
     inkscape:cx="8"
     inkscape:cy="8"
     inkscape:window-x="0"
     inkscape:window-y="27"
     inkscape:window-maximized="1"
     inkscape:current-layer="svg4" />
  <g
     id="g831"
     transform="translate(8e-6)">
    <g
       id="g6"
       transform="translate(-212.00006,-280)">
      <path
         id="path2-3"
         d="m 217.87959,282.54831 h 3.81538 v 10.80763 h -3.81538 z"
         inkscape:connector-curvature="0"
         style="fill:#ffffff" />
      <path
         id="path4"
         transform="translate(212.00006,280)"
         d="M 5.3261719,0 C 3.6485819,0.0195 2.4196756,-0.04015813 1.4160156,0.51367188 0.91418562,0.79053187 0.51838813,1.25887 0.29882812,1.84375 0.07926812,2.42863 0,3.12319 0,4 v 8 c 0,0.87681 0.07924813,1.57137 0.29882812,2.15625 0.21956001,0.58488 0.61535751,1.053218 1.11718748,1.330078 1.00366,0.55376 2.2325663,0.494242 3.9101563,0.513672 h 0.00391 5.3398441 0.0039 c 1.67759,-0.0195 2.904543,0.04016 3.908203,-0.513672 0.50183,-0.27686 0.897628,-0.745198 1.117188,-1.330078 C 15.919199,13.57137 16,12.87681 16,12 V 4 C 16,3.12319 15.920752,2.42864 15.701172,1.84375 15.481622,1.25887 15.085814,0.79055188 14.583984,0.51367188 13.580324,-0.04011812 12.351428,0.01936 10.673828,0 h -0.0039 -2.0039064 -3.3359375 z m 1.5703125,2.9550781 h 2 v 6.9902344 l -2,0.00977 V 2.9589844 Z m 0,8.0019529 h 2 v 1.998047 h -2 z"
         inkscape:connector-curvature="0"
         style="fill:#f22c42;fill-opacity:1" />
    </g>
    <path
       id="path852"
       d="M 5.3261719,0 C 3.6485819,0.0195 2.4196756,-0.04015813 1.4160157,0.51367188 0.91418573,0.79053187 0.5183882,1.25887 0.29882817,1.84375 0.07926817,2.42863 0,3.12319 0,4 V 4.5 C 0,3.62319 0.0792682,2.92863 0.29882817,2.34375 0.5183882,1.75887 0.91418573,1.2905319 1.4160156,1.0136719 2.4196756,0.45984185 3.6485819,0.5195 5.3261719,0.5 h 0.00391 3.3359375 2.0039066 0.0039 c 1.6776,0.01936 2.906496,-0.0401182 3.910156,0.5136719 C 15.085812,1.2905519 15.48162,1.75887 15.70117,2.34375 15.920752,2.92864 16,3.62319 16,4.5 V 4 C 16,3.12319 15.92075,2.42864 15.701172,1.84375 15.481622,1.25887 15.085814,0.79055186 14.583984,0.51367188 13.580324,-0.04011813 12.351428,0.01936 10.673828,0 h -0.0039 -2.0039064 -3.3359375 z"
       style="opacity:0.3;fill:#ffffff;fill-opacity:1"
       inkscape:connector-curvature="0" />
    <path
       inkscape:connector-curvature="0"
       style="opacity:0.2;fill:#000000;fill-opacity:1"
       d="m 10.673828,16 c 1.67759,-0.0195 2.906496,0.04016 3.910156,-0.513672 0.50183,-0.27686 0.897628,-0.745198 1.117188,-1.330078 C 15.920732,13.57137 16,12.87681 16,12 v -0.5 c 0,0.87681 -0.07927,1.57137 -0.298828,2.15625 -0.21956,0.58488 -0.615358,1.053218 -1.117188,1.330078 C 13.580324,15.540158 12.351418,15.4805 10.673828,15.5 H 10.669918 7.3339804 5.330074 5.326164 C 3.648564,15.48064 2.419668,15.54012 1.4160081,14.986328 0.91417805,14.709448 0.51837005,14.24113 0.29882005,13.65625 0.07924005,13.07136 -8e-6,12.37681 -8e-6,11.5 V 12 c 0,0.87681 0.0792481,1.57136 0.29882805,2.15625 0.21955,0.58488 0.615358,1.053198 1.11718805,1.330078 C 2.419668,16.040118 3.648564,15.98064 5.326164,16 h 0.00391 2.0039064 3.3359376 z"
       id="path857" />
  </g>
</svg>

<svg xmlns="http://www.w3.org/2000/svg" width="16" height="16" version="1.1">
 <g transform="translate(-212.00006,-280)">
  <path style="fill:#f22c42" d="M 5.3261719 0 C 3.6485819 0.0195 2.4196756 -0.040158125 1.4160156 0.51367188 C 0.91418562 0.79053187 0.51838813 1.25887 0.29882812 1.84375 C 0.079268125 2.42863 0 3.12319 0 4 L 0 12 C 0 12.87681 0.079248125 13.57137 0.29882812 14.15625 C 0.51838813 14.74113 0.91418563 15.209468 1.4160156 15.486328 C 2.4196756 16.040088 3.6485819 15.98057 5.3261719 16 L 5.3300781 16 L 10.669922 16 L 10.673828 16 C 12.351418 15.9805 13.578371 16.040158 14.582031 15.486328 C 15.083861 15.209468 15.479659 14.74113 15.699219 14.15625 C 15.919199 13.57137 16 12.87681 16 12 L 16 4 C 16 3.12319 15.920752 2.42864 15.701172 1.84375 C 15.481622 1.25887 15.085814 0.79055188 14.583984 0.51367188 C 13.580324 -0.040118125 12.351428 0.01936 10.673828 0 L 10.669922 0 L 8.6660156 0 L 5.3300781 0 L 5.3261719 0 z M 6.8964844 2.9550781 L 8.8964844 2.9550781 L 8.8964844 9.9453125 L 6.8964844 9.9550781 L 6.8964844 2.9589844 L 6.8964844 2.9550781 z M 6.8964844 10.957031 L 8.8964844 10.957031 L 8.8964844 12.955078 L 6.8964844 12.955078 L 6.8964844 10.957031 z" transform="translate(212.00006,280)"/>
 </g>
</svg>
